public/images/question-icon.svg

<svg width="34" height="34" viewBox="0 0 34 34" fill="none" xmlns="http://www.w3.org/2000/svg">
<circle cx="17" cy="17.4258" r="16.5" fill="#153862"/>
<path d="M16.6241 12.6416C15.6473 12.6416 14.8355 13.064 14.1887 13.9088L12.8423 12.3842C13.2119 11.777 13.7465 11.2886 14.4461 10.919C15.1457 10.5494 15.9179 10.3646 16.7627 10.3646C18.0563 10.3646 19.0661 10.7012 19.7921 11.3744C20.5445 12.0344 20.9207 12.8594 20.9207 13.8494C20.9207 14.7206 20.7491 15.4268 20.4059 15.968C20.0627 16.496 19.5809 17.0108 18.9605 17.5124C18.8813 17.5784 18.7757 17.6642 18.6437 17.7698C18.5249 17.8754 18.4259 17.9612 18.3467 18.0272C18.2807 18.08 18.1883 18.1592 18.0695 18.2648C17.9639 18.3704 17.8847 18.4562 17.8319 18.5222C17.7791 18.575 17.7065 18.6608 17.6141 18.7796C17.5349 18.8852 17.4821 18.9776 17.4557 19.0568C17.4293 19.136 17.3897 19.2416 17.3369 19.3736C17.2973 19.5056 17.2841 19.6244 17.2973 19.73C17.3237 19.8356 17.3369 19.9676 17.3369 20.126L15.2579 20.1458C15.1787 19.6574 15.1721 19.2284 15.2381 18.8588C15.3173 18.476 15.4823 18.1328 15.7331 17.8292C15.9971 17.5124 16.2083 17.288 16.3667 17.156C16.5383 17.0108 16.8089 16.7996 17.1785 16.5224C18.0497 15.9152 18.4853 15.1892 18.4853 14.3444C18.4853 13.8692 18.3071 13.4666 17.9507 13.1366C17.5943 12.8066 17.1521 12.6416 16.6241 12.6416ZM14.8223 22.9574C14.8223 22.5746 14.9675 22.238 15.2579 21.9476C15.5615 21.644 15.9377 21.4922 16.3865 21.4922C16.7957 21.4922 17.1389 21.644 17.4161 21.9476C17.7065 22.238 17.8517 22.5746 17.8517 22.9574C17.8517 23.393 17.7131 23.7692 17.4359 24.086C17.1587 24.3896 16.8089 24.5414 16.3865 24.5414C15.9377 24.5414 15.5615 24.3896 15.2579 24.086C14.9675 23.7692 14.8223 23.393 14.8223 22.9574Z" fill="white"/>
</svg>

<svg width="34" height="34" fill="none" xmlns="http://www.w3.org/2000/svg"><circle cx="17" cy="17.426" r="16.5" fill="#153862"/><path d="M16.624 12.642c-.977 0-1.788.422-2.435 1.267l-1.347-1.525c.37-.607.904-1.095 1.604-1.465a4.88 4.88 0 012.317-.554c1.293 0 2.303.336 3.03 1.01.752.66 1.128 1.484 1.128 2.474 0 .872-.172 1.578-.515 2.119-.343.528-.825 1.043-1.445 1.544-.08.066-.185.152-.317.258-.12.105-.218.191-.297.257a7.578 7.578 0 00-.277.238 3.362 3.362 0 00-.238.257 2.97 2.97 0 00-.218.258 1.03 1.03 0 00-.158.277 5.803 5.803 0 01-.12.317c-.039.132-.052.25-.039.356.027.106.04.238.04.396l-2.08.02c-.078-.489-.085-.918-.019-1.287.08-.383.244-.726.495-1.03.264-.317.475-.541.634-.673.171-.145.442-.356.811-.634.872-.607 1.307-1.333 1.307-2.178 0-.475-.178-.877-.534-1.207-.357-.33-.799-.495-1.327-.495zm-1.802 10.315c0-.382.146-.719.436-1.01.304-.303.68-.455 1.129-.455.409 0 .752.152 1.03.456.29.29.435.627.435 1.01 0 .435-.139.811-.416 1.128a1.36 1.36 0 01-1.05.455c-.448 0-.824-.151-1.128-.455a1.614 1.614 0 01-.436-1.129z" fill="#fff"/></svg>
